data/styles/clear/style-clear/symbols/computer-m.svg

<svg height="24" viewBox="0 0 24 24" width="24"><g fill="none" fill-rule="evenodd"><circle cx="12" cy="12" fill="#fff" opacity=".6" r="12"/><circle cx="12" cy="12" fill="#8c5f93" r="11"/><path d="m18 7.47784615v6.27600005c0 .816-.6618462 1.4778461-1.4778462 1.4778461h-3.4144615l1.2 1.2913846v.7384616c0 .408-.3304615.7393846-.7393846.7393846h-3.1375385c-.4070769 0-.73846151-.3304616-.73846151-.7393846v-.7384616l1.20092311-1.2913846h-3.41538465c-.81692307 0-1.47784615-.6618461-1.47784615-1.4778461v-6.27600005c0-.816.66092308-1.47784615 1.47784615-1.47784615h9.04523075c.8150769 0 1.4769231.66184615 1.4769231 1.47784615zm-1.8461538 5.90676925v-5.53846155h-8.30769235v5.53846155z" fill="#fff"/></g></svg>

<svg width="24" height="24" viewBox="0 0 24 24">
  <g fill="none" fill-rule="evenodd">
    <circle cx="12" cy="12" r="12" fill="#FFF" opacity=".6"/>
    <circle cx="12" cy="12" r="11" fill="#8C5F93"/>
    <path fill="#FFF" d="M18,7.47784615 L18,13.7538462 C18,14.5698462 17.3381538,15.2316923 16.5221538,15.2316923 L13.1076923,15.2316923 L14.3076923,16.5230769 L14.3076923,17.2615385 C14.3076923,17.6695385 13.9772308,18.0009231 13.5683077,18.0009231 L10.4307692,18.0009231 C10.0236923,18.0009231 9.69230769,17.6704615 9.69230769,17.2615385 L9.69230769,16.5230769 L10.8932308,15.2316923 L7.47784615,15.2316923 C6.66092308,15.2316923 6,14.5698462 6,13.7538462 L6,7.47784615 C6,6.66184615 6.66092308,6 7.47784615,6 L16.5230769,6 C17.3381538,6 18,6.66184615 18,7.47784615 L18,7.47784615 Z M16.1538462,13.3846154 L16.1538462,7.84615385 L7.84615385,7.84615385 L7.84615385,13.3846154 L16.1538462,13.3846154 L16.1538462,13.3846154 Z"/>
  </g>
</svg>
